images/psd-file-icon.svg

<svg width="40" height="40" viewBox="0 0 40 40" fill="none" xmlns="http://www.w3.org/2000/svg">
<g clip-path="url(#clip0_143_5174)">
<path d="M39.1875 9.07656L30.1656 0.682813C29.6936 0.243766 29.0728 -0.000203251 28.4281 1.27054e-07L9.6 1.27054e-07C8.92429 0.00165326 8.27677 0.271026 7.79926 0.749122C7.32175 1.22722 7.05317 1.87507 7.05235 2.55078V14.6602H2.55C1.87416 14.6608 1.22616 14.9294 0.748119 15.4072C0.27008 15.8849 0.00103837 16.5328 4.30677e-06 17.2086V26.0367C-0.000611768 26.3721 0.0648743 26.7043 0.192719 27.0144C0.320564 27.3244 0.508261 27.6062 0.745081 27.8437C0.981901 28.0812 1.2632 28.2696 1.5729 28.3983C1.8826 28.527 2.21463 28.5934 2.55 28.5938H7.05235V37.4492C7.05317 38.1255 7.32218 38.7738 7.80037 39.252C8.27855 39.7302 8.92687 39.9992 9.60313 40H37.45C38.1262 39.9992 38.7744 39.7301 39.2525 39.2519C39.7305 38.7737 39.9994 38.1254 40 37.4492V10.9438C39.9995 10.5935 39.9271 10.2471 39.7873 9.92593C39.6476 9.60477 39.4434 9.31569 39.1875 9.07656ZM38.0984 9.53125H31.232C30.8406 9.53084 30.4652 9.37514 30.1884 9.09832C29.9116 8.8215 29.7559 8.44617 29.7555 8.05469V1.76875L38.0984 9.53125ZM1.07344 26.0406V17.2125C1.07386 16.821 1.22955 16.4457 1.50637 16.1689C1.78319 15.892 2.15852 15.7364 2.55 15.7359H27.8125C28.204 15.7364 28.5793 15.892 28.8561 16.1689C29.133 16.4457 29.2887 16.821 29.2891 17.2125V26.0406C29.2887 26.4321 29.133 26.8074 28.8561 27.0843C28.5793 27.3611 28.204 27.5168 27.8125 27.5172H2.55C2.15852 27.5168 1.78319 27.3611 1.50637 27.0843C1.22955 26.8074 1.07386 26.4321 1.07344 26.0406ZM38.9266 37.4469C38.9262 37.8384 38.7705 38.2137 38.4936 38.4905C38.2168 38.7673 37.8415 38.923 37.45 38.9234H9.60313C9.21158 38.9232 8.83613 38.7676 8.55927 38.4907C8.28241 38.2139 8.12677 37.8384 8.12657 37.4469V28.5938H27.8125C28.4886 28.5931 29.1369 28.3243 29.6149 27.8462C30.093 27.3681 30.3619 26.7199 30.3625 26.0437V17.2156C30.3631 16.8802 30.2976 16.548 30.1698 16.238C30.0419 15.9279 29.8542 15.6461 29.6174 15.4086C29.3806 15.1712 29.0993 14.9827 28.7896 14.854C28.4799 14.7253 28.1479 14.6589 27.8125 14.6586H8.125V2.54922C8.12521 2.15767 8.28084 1.78222 8.55771 1.50536C8.83457 1.2285 9.21002 1.07286 9.60157 1.07266H28.4297C28.5148 1.07273 28.5998 1.08031 28.6836 1.09531V8.05234C28.6842 8.72846 28.9531 9.3767 29.4312 9.85478C29.9092 10.3329 30.5575 10.6017 31.2336 10.6023H38.8899C38.9172 10.7136 38.9314 10.8276 38.932 10.9422L38.9266 37.4469ZM9.40079 18.4375H7.03594C6.96543 18.4374 6.89559 18.4512 6.83043 18.4781C6.76526 18.5051 6.70605 18.5446 6.65619 18.5945C6.60634 18.6443 6.5668 18.7035 6.53987 18.7687C6.51293 18.8339 6.49912 18.9037 6.49922 18.9742V24.2812C6.49922 24.4236 6.55577 24.5601 6.65642 24.6608C6.75708 24.7614 6.89359 24.818 7.03594 24.818C7.17829 24.818 7.31481 24.7614 7.41546 24.6608C7.51611 24.5601 7.57266 24.4236 7.57266 24.2812V22.5625H9.40079C9.94095 22.552 10.4554 22.33 10.8337 21.9443C11.212 21.5586 11.4239 21.0399 11.4239 20.4996C11.4239 19.9593 11.212 19.4406 10.8337 19.0549C10.4554 18.6692 9.94095 18.4472 9.40079 18.4367V18.4375ZM9.40079 21.4891H7.57266V19.5078H9.40079C9.6631 19.5078 9.91467 19.612 10.1002 19.7975C10.2856 19.983 10.3898 20.2346 10.3898 20.4969C10.3898 20.7592 10.2856 21.0108 10.1002 21.1962C9.91467 21.3817 9.6631 21.4859 9.40079 21.4859V21.4891ZM21.193 18.4375H19.4375C19.2952 18.4375 19.1586 18.494 19.058 18.5947C18.9573 18.6954 18.9008 18.8319 18.9008 18.9742V24.2812C18.901 24.4235 18.9576 24.5599 19.0582 24.6605C19.1588 24.7611 19.2952 24.8178 19.4375 24.818H21.193C21.9016 24.8171 22.5809 24.5353 23.0819 24.0343C23.583 23.5332 23.8648 22.8539 23.8656 22.1453V21.1063C23.864 20.3983 23.5817 19.7198 23.0808 19.2196C22.5798 18.7194 21.9009 18.4381 21.193 18.4375ZM22.7914 22.1453C22.791 22.5691 22.6225 22.9754 22.3228 23.2751C22.0231 23.5748 21.6168 23.7433 21.193 23.7438H19.975V19.5078H21.193C21.6167 19.5084 22.0229 19.677 22.3226 19.9767C22.6222 20.2763 22.7908 20.6825 22.7914 21.1063V22.1453ZM17.6641 22.9508C17.664 23.1496 17.6233 23.3463 17.5445 23.5289C17.2227 24.2969 16.2727 24.8148 15.1813 24.8148C14.0898 24.8148 13.1422 24.2969 12.8188 23.525C12.79 23.4597 12.7745 23.3894 12.7733 23.3181C12.772 23.2468 12.7849 23.176 12.8114 23.1098C12.8378 23.0435 12.8771 22.9832 12.9271 22.9324C12.9771 22.8815 13.0367 22.8411 13.1024 22.8136C13.1682 22.786 13.2388 22.7718 13.3101 22.7718C13.3814 22.7719 13.452 22.7861 13.5177 22.8137C13.5835 22.8413 13.6431 22.8818 13.693 22.9327C13.7429 22.9836 13.7822 23.0439 13.8086 23.1102C13.9367 23.4156 14.4617 23.7406 15.1813 23.7406C15.9008 23.7406 16.4313 23.4156 16.5555 23.1102C16.5779 23.0611 16.5898 23.0079 16.5906 22.9539C16.5906 22.7023 16.3297 22.443 15.9258 22.2922C15.8852 22.2773 15.7102 22.2234 15.1578 22.1656L15.1141 22.1594H15.0891C14.5945 22.107 14.2703 22.0477 14.068 21.9734C13.2242 21.6609 12.7 21.0203 12.7 20.3039C12.7003 20.105 12.7413 19.9083 12.8203 19.7258C13.1422 18.9578 14.0914 18.4398 15.1813 18.4398C16.2711 18.4398 17.2227 18.9578 17.5461 19.7289C17.5765 19.7945 17.5933 19.8654 17.5956 19.9377C17.5979 20.0099 17.5856 20.0818 17.5595 20.1491C17.5334 20.2165 17.494 20.2779 17.4436 20.3297C17.3932 20.3814 17.3329 20.4225 17.2663 20.4505C17.1997 20.4784 17.1282 20.4927 17.0559 20.4923C16.9837 20.492 16.9123 20.4771 16.8459 20.4485C16.7795 20.42 16.7196 20.3783 16.6697 20.3261C16.6198 20.2739 16.581 20.2121 16.5555 20.1445C16.4273 19.8383 15.9023 19.5133 15.1813 19.5133C14.4602 19.5133 13.9367 19.8383 13.8086 20.1445C13.7866 20.1938 13.7747 20.2469 13.7734 20.3008C13.7734 20.5531 14.0359 20.8125 14.4414 20.9633C14.4813 20.9781 14.6539 21.0305 15.2023 21.0891L15.2477 21.0945H15.2711C15.7688 21.1469 16.0961 21.207 16.3008 21.2828C17.1422 21.5969 17.6641 22.2352 17.6641 22.9508Z" fill="white" stroke="white" stroke-width="0.5"/>
</g>
<defs>
<clipPath id="clip0_143_5174">
<rect width="40" height="40" fill="white"/>
</clipPath>
</defs>
</svg>

<svg width="40" height="40" fill="none" xmlns="http://www.w3.org/2000/svg"><g clip-path="url(#clip0_143_5174)"><path d="M39.188 9.077L30.166.683A2.55 2.55 0 0028.428 0H9.6a2.554 2.554 0 00-2.548 2.55v12.11H2.55A2.552 2.552 0 000 17.21v8.828a2.553 2.553 0 002.55 2.557h4.502v8.855A2.554 2.554 0 009.603 40H37.45A2.553 2.553 0 0040 37.45V10.943a2.56 2.56 0 00-.813-1.867zm-1.09.454h-6.866a1.478 1.478 0 01-1.476-1.476V1.769l8.342 7.762zM1.073 26.041v-8.829a1.478 1.478 0 011.477-1.476h25.262a1.478 1.478 0 011.477 1.476v8.829a1.478 1.478 0 01-1.477 1.476H2.55a1.478 1.478 0 01-1.477-1.476zm37.854 11.406a1.478 1.478 0 01-1.477 1.476H9.603a1.477 1.477 0 01-1.476-1.476v-8.853h19.685a2.552 2.552 0 002.55-2.55v-8.828a2.553 2.553 0 00-2.55-2.557H8.125V2.549a1.477 1.477 0 011.477-1.476H28.43c.085 0 .17.007.254.022v6.957a2.552 2.552 0 002.55 2.55h7.656c.027.112.041.226.042.34l-.005 26.505zM9.4 18.437H7.036a.537.537 0 00-.537.537v5.307a.537.537 0 101.074 0v-1.718H9.4a2.063 2.063 0 000-4.126v0zm0 3.052H7.573v-1.981H9.4a.99.99 0 010 1.978v.003zm11.792-3.052h-1.756a.536.536 0 00-.536.537v5.307a.537.537 0 00.537.537h1.755a2.676 2.676 0 002.673-2.673v-1.039a2.675 2.675 0 00-2.673-2.669zm1.598 3.708a1.6 1.6 0 01-1.598 1.599h-1.218v-4.236h1.218a1.6 1.6 0 011.598 1.598v1.04zm-5.127.806c0 .199-.04.395-.12.578-.321.768-1.271 1.286-2.363 1.286-1.091 0-2.039-.518-2.362-1.29a.535.535 0 01.491-.753.538.538 0 01.499.338c.128.306.653.63 1.372.63.72 0 1.25-.324 1.374-.63a.39.39 0 00.036-.156c0-.252-.261-.511-.665-.662-.04-.015-.216-.069-.768-.126l-.044-.007h-.025c-.495-.052-.819-.111-1.021-.186-.844-.312-1.368-.953-1.368-1.67 0-.198.041-.395.12-.577.322-.768 1.271-1.286 2.361-1.286 1.09 0 2.042.518 2.365 1.289a.537.537 0 11-.99.416c-.129-.307-.654-.632-1.375-.632-.72 0-1.244.325-1.372.631a.407.407 0 00-.036.157c0 .252.263.512.668.662.04.015.213.067.761.126l.046.006h.023c.498.052.825.112 1.03.188.841.314 1.363.952 1.363 1.668z" fill="#fff" stroke="#fff" stroke-width=".5"/></g><defs><clipPath id="clip0_143_5174"><path fill="#fff" d="M0 0h40v40H0z"/></clipPath></defs></svg>
